X: 25702
T: Mary Alick's
R: reel
M: 4/4
K: Ddorian
|:E ~D3 EDCD|EGAB ~c2 Bc|ABAG EGAB|cAGE EDCD|
E ~D3 EDCD|EGAB ~c2 Bc|ABAG EGAB|cBcG ED D2:|
|:dcAc dcAG|EGAB c2 Bc|dcAc dcAB|cAGF EC C2|
dcAc dcAG|EGAB c2 Bc|defe dcAB|cBcG ED D2:|

